icons/label-star.svg

<svg xmlns="http://www.w3.org/2000/svg" width="24" height="24" viewBox="0 0 24 24">
  <path d="M15.0924635,4 C15.6691887,4 16.2178408,4.24896086 16.5976169,4.68299078 L21.8476169,10.6829908 C22.5074124,11.4370428 22.5074124,12.5629572 21.8476169,13.3170092 L16.5976169,19.3170092 C16.2178408,19.7510391 15.6691887,20 15.0924635,20 L4,20 C2.8954305,20 2,19.1045695 2,18 L2,6 C2,4.8954305 2.8954305,4 4,4 L15.0924635,4 Z M10.2212829,8.18140769 C9.97365603,8.05919655 9.67384311,8.16086605 9.55163196,8.40849288 L9.55163196,8.40849288 L8.67748318,10.1797118 L6.72282709,10.4637399 C6.61400857,10.4795522 6.51343737,10.5307958 6.43668307,10.6095376 C6.24393246,10.8072794 6.24797861,11.123836 6.4457204,11.3165866 L6.4457204,11.3165866 L7.86012284,12.6952882 L7.52622772,14.6420462 C7.50763929,14.750425 7.52529663,14.861909 7.57646617,14.9592393 C7.70496657,15.2036616 8.00728015,15.2976348 8.25170244,15.1691344 L8.25170244,15.1691344 L10,14.25 L11.7482976,15.1691344 C11.8456278,15.220304 11.9571118,15.2379613 12.0654907,15.2193729 C12.3376589,15.1726924 12.5204528,14.9142144 12.4737723,14.6420462 L12.4737723,14.6420462 L12.1398772,12.6952882 L13.5542796,11.3165866 C13.6330214,11.2398323 13.684265,11.1392611 13.7000773,11.0304426 C13.7397861,10.7571702 13.5504453,10.5034487 13.2771729,10.4637399 L13.2771729,10.4637399 L11.3225168,10.1797118 L10.448368,8.40849288 C10.3997029,8.30988657 10.3198892,8.23007281 10.2212829,8.18140769 Z"/>
</svg>

<svg xmlns="http://www.w3.org/2000/svg" viewBox="0 0 24 24">
  <path d="M15.1 4a2 2 0 0 1 1.5.68l5.25 6a2 2 0 0 1 0 2.64l-5.25 6a2 2 0 0 1-1.5.68H4a2 2 0 0 1-2-2V6c0-1.1.9-2 2-2h11.1zm-4.88 4.18a.5.5 0 0 0-.67.23l-.87 1.77-1.96.28a.5.5 0 0 0-.27.86l1.41 1.38-.33 1.94a.5.5 0 0 0 .72.53l1.75-.92 1.75.92a.5.5 0 0 0 .72-.53l-.33-1.94 1.41-1.38a.5.5 0 0 0-.27-.86l-1.96-.28-.87-1.77a.5.5 0 0 0-.23-.23z"/>
</svg>
